!!!OTL: 237. Adams Soehne (Reigen mit Pantomimen).
!!!ARE: Europa, Mitteleuropa, Deutschland, Kassel
!!!SCT: K2237
!!!TXL: @@DE
!!!YEM: Copyright 1995, estate of Helmut Schaffrath.
**kern	**text
*clefG2	*
*M2/4	*
*k[]	*
*C:	*
=1	=1
!LO:TX:a:t=I. Theil. Einleitung.	!
{8g	A-
8g	-dam
8a	hat-
8a	-te
=2	=2
8g	ſie-
8f	-ben
8e}	Söh-
{8c	-ne,
=3	=3
8g	ſie-
8g	-ben
8a	Söhn'
8a	hatt'
=4	=4
4g	A-
8e}	-dam.
{8a	Sie
=5	=5
8g	a-
8f	-ßen
8e	nicht,
8a	ſie
=6	=6
8g	tran-
8f	-ken
8e}	nicht,
{8c	ſie
=7	=7
8g	mach-
8g	-ten
8a	al-
8a	-le
=8	=8
8g	ſo
8f	wie
4e}	ich
=9||	=9||
!LO:TX:a:t=II. Theil. Pantomimen.	!
{8g	Mit
8g	dem
8a	Finger-
8a	-chen
=10	=10
8g	tip
8f	tip
4e}	tip,
=11	=11
{8g	mit
8g	dem
8a	Köpf-
8a	-chen
=12	=12
8g	nick
8f	nick
4e}	nick,
=13	=13
{8g	mit
8g	den
8a	Füß-
8a	-chen
=14	=14
8g	trab
8f	trab
4e}	trab,
=15	=15
{8g	mit
8g	den
8a	Händ-
8a	-chen
=16	=16
8g	klapp
8f	klapp
8e}	klapp.
=||	=||
!LO:TX:a:t=III. Theil. Rundtantz	!
{8a	Kohl-
=17	=17
8g	-rü-
8f	-ber-
8e	-chen,
8a	Kohl-
=18	=18
8g	-rü-
8f	-ber-
8e}	-chen,
{8c	das
=19	=19
8g	ſind
8g	die
8a	beſ-
8a	-ten
=20	=20
4g	Pflanʒen,
8e}	.
{8c	und
=21	=21
8g	wenn
8g	mein
8a	Va-
8a	-ter
=22	=22
8g	Hoch-
8f	-ʒeit
8e}	hält,
{8c	dann
=23	=23
16g	fan-
16g	-gen
8g	wir
8a	an
8a	ʒu
=24	=24
4g	tan-
4e}	-ʒen.
==	==
!!!AGN: Kinder - Lied, Reigen, Tanz, Nachahmungs - Spiel, Pantomime
!!!ONB: ESAC (Essen Associative Code) Database: KINDER
!!!AMT: simple duple
!!!AIN: vox
!!!EED: Helmut Schaffrath
!!!EEV: 1.0
!!Melodie aus Kassel. Lewalter V. Nr. 34.
!!!GTL: Zweites Buch. Kinderspiel: 2. Reigen und Tanzspiele. / E. Reigenspiele mit Nachahmungen.
!!@@COMMENT:"Text in ganʒ Deutſchland gekannt, gewöhnlich bloß J. Satʒ, ſo bei Erk I. 4, 53 aus dem Odenwald. Mit II. Satʒ im Naſſauerlande und bei Simrock 196. Am vollſtändigſten (wie hier) 
!!aus Kaſſel: Lewalter V. Nr. 34, aber mit dem ungewöhnlichen Anfange: "Jakob hatte rc. - Ausführung: Die Kinder bilden einen Kreis und fingen. Bei Ausführung der Bewegungen 
!!im II. Theil wird natürlich der Kreis unterbrochen. Bei den Worten tipp, tipp, tipp wird mit dem Ʒeigefinger dreimal an die Stirn gedeutet, bei nick, nick, nick dreimal mit dem Kopfe 
!!genickt, bei trab mit den Füßen ʒur Erde geſtampft und bei klapp dreimal in die Hände geklatſcht. Beim III. Satʒ faſſen ſich die Kinder wieder an und beginnen ʒu Ʒweien ʒu tanʒen."
!!@@END:
!!!URL-scan: https://archive.org/details/DeutschesKinderliedUndKinderspiel/page/494/mode/1up
!!!ENC: Anna Maria Matuszewska
!!!EEV: 2024/04/09
*-	*-
